X:26
T:Swallowtail Jig
M:6/8
R:jig
C:Traditional
K:Edor
GEE BEE | GEE BAG | FDD ADD | dcd AGF |
GEE BEE | GEE B2c | dcd AGF |[1 GEE E2F :|[2 GEE E3 |]
|:Bcd e2f | e2f edB | Bcd e2f | edB d3 |
Bcd e2f | e2f edB | dcd AGF |[1 GEE E3 :|[2 GEE E2F |]

